X:1
T:Harvey Logan
M:2/4
L:1/8
K:D
 AA B/2A/2 F| A A2 B/2 A/2 d| dB/2-A/2 F D2| C3/2 C/2 B,3/2 B,/2| B,B, B B2|\
 GG E/2E/2 F| G E2 F| ^G A4-| A=G F3.99999962500005/5.99999925000009(2F3.99999962500005/5.99999925000009F3.99999962500005/5.99999925000009F3.99999962500005/5.99999925000009|\
 D4| z4|
